X:110
T:Coronation, The
M:6/8
L:1/8
B:Thompson's Compleat Collection of 200 Favourite Country Dances, vol. 2 (London, 1765)
Z:Transcribed and edited by Flynn Titford-Mock, 2007
Z:abc's:AK/Fiddler's Companion
K:G
g2d "t"c2B | A2G AFD | g2d c2B | AGF G3 | g2d c2B | A2G AFD | B2^c d2g | fge "tr"d3 :|
|: d2g f2e | d^cd ecA | d2g f2e | de^c def | g2d "tr"c2B | A2G AFD | g2d "tr"c2B | AGF G3 :|

